X: 21312
T: The GROVES OF BLARNEY
O: Irish air.
%R: air, waltz
B: W. Hamilton "Universal Tune-Book" Vol. 2 Glasgow 1846 p.131 #2
S: http://s3-eu-west-1.amazonaws.com/itma.dl.printmaterial/book_pdfs/hamiltonvol2web.pdf
Z: 2016 John Chambers <jc:trillian.mit.edu>
M: 3/4
L: 1/8
K: G
% - - - - - - - - - - - - - - - - - - - - - - - - -
GG>A |\
B2e>dd>c | BE2FG>A | B2cBAG | G3GGA |\
B2e>dd>c | BE2FG>A | B2cBAG | G3dd>B |
g3f{f}e>d | dB2dd>B | g3fe^d | He3{f}g G>A |\
B3e>dd>c | BE2FG>A | B2cBAG | G3 |]
% - - - - - - - - - - - - - - - - - - - - - - - - -

%%sep 1 1 500
%%sep 1 1 500

